Obsidian-SemiLight/actions/24s/format-align-vertical-top.svg

<svg viewBox="0 0 24 24" xmlns="http://www.w3.org/2000/svg"><path d="m4 4v1h1 14 1v-1h-1-14zm8 3-3 4h2v6 2 1h2v-1-3-5h2z" fill="#4d4d4d"/></svg>

<svg xmlns="http://www.w3.org/2000/svg" viewBox="0 0 24 24">
  <defs id="defs3051">
    <style type="text/css" id="current-color-scheme">
      .ColorScheme-Text {
        color:#4d4d4d;
      }
      </style>
  </defs>
 <path style="fill:currentColor;fill-opacity:1;stroke:none" 
     d="M 4 4 L 4 5 L 5 5 L 19 5 L 20 5 L 20 4 L 19 4 L 5 4 L 4 4 z M 12 7 L 9 11 L 11 11 L 11 17 L 11 19 L 11 20 L 13 20 L 13 19 L 13 16 L 13 11 L 15 11 L 12 7 z "
     class="ColorScheme-Text"
     />
</svg>
